X:91
T:Tabhair Dom Do Lámh
S:The Session: https://thesession.org/tunes/454#setting54009
C:Traditional
R:waltz
K:G
M:3/4
L:1/8
Q:1/4=96
D2|:"C"E2 G2 G2|"G"G4 D2|"C"E2 G2 G2|"G"G4 D2|"C"E2 G2 G2|"G"G2 A2 B2|"Bm"B2 e2 d2|"Em"B4 AG|
|"Am"A2 A2 ed|"G"B2 B2 dB|"Am"A3 B AG|"C"E4 D2|"C"E2 G2 G2|"G"G4 D2|"C"E2 G2 G2|"G"G4 D2|
|"C"E2 G2 G2|"Em"G2 A2 B2|"D"D3 B AB|"G"G4 D2|"C"E2 G2 G2|"G"G2 A2 B2|"Bm"B2 e2 d2|"Em"B4 AG|
|"Am"A2 A2 ed|"G"B2 B2 dB|"Am"A3 G (3Bcd|"C"e4 dB|"G"d2 d2 e2|"Em"g4 ed|"C"e2 e2 g2|"D"a4 ge|
|"G"g2 g2 de|"Em"g2 g2 de|"C"g2 g2 a2|"G"b6|"G"b2 b2 b2|"Em"b4 ag|"Am"a2 ag ab|"D"a4 gf|
|"C"e2 e2 ge|"G"d2 d2 gd|"Em"B2 B2 dB|"D"A3 c BA|
|"G"G3A (3Bcd|"F"=f4 ed|"C"e2 e2 g2|"C"e4 dB|"G"d2 d2 gd|"Em"B2 B2 dB|"D"A3 c BA|"G"G4D2:|
|[2 "Fine""C"E2 G2 G2|"G"G4 D2|"C"E2 G2 G2|"G"G4 D2|"C"E2 G2 G2|"Em"G2 A2 B2|"D"D3 B AB|"G"G6||

